X:115
T: New Policeman
S: "Ceol Rince na hEireann" 1/99
Z: B.Black
L: 1/8
M: 4/4
R: reel
K: G
B3G A2 GE|D2 BG AEED|B2 BG A2 Bc|dBAc BGG>A|
B3G A2 GE|D2 BG AEED|B2 BG A2 Bc|dBAG EG G2||
g2 gf g2 dg|e2 dg egde|g2 (3gfg g2 ag|ea a2 agef|
g2 gf g2 dg|e2 dg eg d2|eggf ge d2|eaaf gedc||
